storage/app/icons/tabler/filled/file-phone.svg

<!--
unicode: "10127"
version: "3.30"
-->
<svg
  xmlns="http://www.w3.org/2000/svg"
  width="24"
  height="24"
  viewBox="0 0 24 24"
  fill="currentColor"
>
  <path d="M12 2l.117 .007a1 1 0 0 1 .876 .876l.007 .117v4l.005 .15a2 2 0 0 0 1.838 1.844l.157 .006h4l.117 .007a1 1 0 0 1 .876 .876l.007 .117v9a3 3 0 0 1 -2.824 2.995l-.176 .005h-10a3 3 0 0 1 -2.995 -2.824l-.005 -.176v-14a3 3 0 0 1 2.824 -2.995l.176 -.005zm-2.5 7.5a1.5 1.5 0 0 0 -1.5 1.5v1a6 6 0 0 0 6 6h1a1.5 1.5 0 0 0 0 -3h-1l-.144 .007a1.5 1.5 0 0 0 -1.128 .697l-.042 .074l-.022 -.007a4.01 4.01 0 0 1 -2.435 -2.435l-.008 -.023l.075 -.041a1.5 1.5 0 0 0 .704 -1.272v-1a1.5 1.5 0 0 0 -1.5 -1.5m5.499 -6.501l4.001 4.001h-4z" />
</svg>

<svg xmlns="http://www.w3.org/2000/svg" width="24" height="24" fill="currentColor" viewBox="0 0 24 24"><path d="m12 2 .117.007a1 1 0 0 1 .876.876L13 3v4l.005.15a2 2 0 0 0 1.838 1.844L15 9h4l.117.007a1 1 0 0 1 .876.876L20 10v9a3 3 0 0 1-2.824 2.995L17 22H7a3 3 0 0 1-2.995-2.824L4 19V5a3 3 0 0 1 2.824-2.995L7 2zM9.5 9.5A1.5 1.5 0 0 0 8 11v1a6 6 0 0 0 6 6h1a1.5 1.5 0 0 0 0-3h-1l-.144.007a1.5 1.5 0 0 0-1.128.697l-.042.074-.022-.007a4.01 4.01 0 0 1-2.435-2.435l-.008-.023.075-.041A1.5 1.5 0 0 0 11 12v-1a1.5 1.5 0 0 0-1.5-1.5m5.499-6.501L19 7h-4z"/></svg>
